!!!ONB: MCCC : IJH0452_01 : Extracted Monophonic Melody
!!!COM: Haydn, Joseph
!!!OPR: String Quartet in F major
!!!OMV: 1
!!!SCT: Hob.III:26 ; Op.17 No.2
!!!ODT: 1771///
**kern
*thru
*k[b-]
*F:
*clefG
*M4/4
2.cc
4ff
=1
8ff
8ee
2ee
16cc
8.ccc
=2
16ccc
16bb-
16aa
16gg
16ff
16ee
16dd
16cc
8cc
8cc#
8.dd
16b-
=3
8a
16g
16f
4f
2r
=4
2.cc[
16cc]
16aa
16gg
16ff
=5
8ff
8ee
2ee[
16ee]
16bb-
16aa
16gg
=6
8gg
8ff
2ff[
16ff]
16ccc
16bb-
16aa
=7
16aa
16gg
16ff#
16gg
4..bb-
32gg
32ee
8cc
8b-
=8
8a
16g
16f
4f
4.r
8bb-
=9
16bb-
16aa
16gg
16ff
8ff
2r
8bb-
=10
16bb-
16aa
16gg
16ff
8ff
2r
8r
=11
2.aa
16gg
16ff
16ee
16dd
=12
8dd
8cc#
4cc#
16cc#
16ee
16dd
16ff
16ee
16gg
16ff
16aa
=13
2gg[
8gg]
8B-
8A
8gg
=14
8ff
16ee
16dd
8dd
2r
8r
=15
2.gg
16ff
16ee
16dd
16cc
=16
8cc
8b
2b
8ff
16ee
16dd
=17
8dd
8cc
4cc[
16cc]
16gg
16ff#
16gg
8gg
16ff
16ee
=18
8dd
8cc
2ccc
4ff#
=19
1gg
=20
1gg[
=21
2.gg]
4ff
=22
1ee-[
=23
8ee-]
16ee-
16dd
16ee-
16dd
16ee-
16dd
4ee-
4c
=24
16B
16b
16d
16dd
16f
16ff
16g
16gg
16b
16bb
16dd
16ddd
16ccc
16bb
16aa
16gg
=25
4ccc
4eee
4.ggg
16fff
16eee
=26
4ddd
4fff
4.aaa
8f#
=27
2g
2dd
=28
8cc
8cc
16b
16cc
16dd
16cc
4gg
16ff
16ee
16dd
16cc
=29
8cc
8cc
16b
16cc
16dd
16cc
4gg
16ff
16ee
16dd
16cc
=30
8cc
8cc
16b
16cc
16dd
16cc
4ccc
4r
=31
2e
2a[
=32
4a]
4d
4g
4f
=33
4e
16cc
16dd
16ee
16cc
16a
16b
16cc
16a
16f
16g
16a
16f
=34
2G
2dd
=35
2cc[
8cc]
8ff
8ff
16ee
16dd
=36
2cc[
8cc]
8ff
8ff
16ee
16dd
=37
1cc
=38
2.cc
4ff
=39
8ff
8ee-
2ee-
16dd
8.ddd
=40
16ddd
16ccc
16bb-
16aa
16gg
16ff#
16ee-
16dd
8dd
4ee-
16dd
16cc
=41
8b-
16a
16g
4g
2r
=42
2dd
2gg
=43
8gg
8ff#
4ff#
2r
=44
2dd
2ff
=45
8ff
8ee
4ee
2r
=46
1r
=47
2ff
2bb-
=48
8bb-
8aa
2aa
4fff
=49
16fff
16eee-
16ddd
16ccc
16bb-
16aa
16gg
16ff
8ff
8ff#
8gg
8ee-
=50
16dd
16ff
16gg
16ff
16bb-
16ff
16gg
16ff
16ddd
16ff
16gg
16ff
16fff
16ff
16gg
16ff
=51
8eee-
8ddd
8ccc
8bb-
8aa
8gg
8ff
8ee-
=52
16dd
16ff
16gg
16ff
16bb-
16ff
16gg
16ff
16ddd
16ff
16gg
16ff
16fff
16ff
16gg
16ff
=53
16eee-
16fff
16ddd
16eee-
16ccc
16ddd
16bb-
16ccc
16aa
16bb-
16gg
16aa
16ff
16gg
16ee-
16ff
=54
8dd
4ff
4bb-
4ddd
8fff
=55
8fff
8d
8d
8d
4d
4G#
=56
16A
16a
16c#
16cc#
16e
16ee
16g
16gg
16b-
16bb-
16a
16aa
16a
16ccc#
16ee
16ccc#
=57
8.ddd
16aa
8.fff
16ddd
4.aaa
16ggg
16fff
=58
4eee
4ggg
4.bbb-
8G#
=59
2A
2ee
=60
8dd
8dd
16cc#
16dd
16ee
16dd
4aa
16gg
16ff
16ee
16dd
=61
8dd
8dd
16cc#
16dd
16ee
16dd
4aa
16gg
16ff
16ee
16dd
=62
8dd
8dd
16cc#
16dd
16ee
16dd
4ddd
4r
=63
2f
2b[
=64
4b]
4e
2a[
=65
4a]
4d
2g[
=66
4g]
4c
2f
=67
2cc[
8cc]
8ff
8ff
16ee
16dd
=68
2cc[
8cc]
8ff
8ff
16ee
16dd
=69
1cc
=70
2.cc
4ff
=71
8ff
8ee
2ee
16cc
8.ccc
=72
16ccc
16bb-
16aa
16gg
16ff
16ee
16dd
16cc
8cc
8cc#
8.dd
16b-
=73
8a
16g
16f
4f
2r
=74
2.cc[
16cc]
16aa
16gg
16ff
=75
8ff
8ee
2ee[
16ee]
16bb-
16aa
16gg
=76
8gg
8ff
2ff[
16ff]
16ccc
16bb-
16aa
=77
16aa
16gg
16ff#
16gg
2gg[
16gg]
16bb-
16aa
16gg
=78
16gg
16ff
16ee
16ff
4ff
16ff
16ee
16ff
16ee
4ff
=79
16ff
16ee
16ff
16ee
16ff
16gg
16aa-
16gg
16ff
16gg
16ff
16gg
4ff
=80
16gg
16ff
16gg
16ff
4ff
16ff
16ee
16ff
16ee
16ff
16aa-
16gg
16ff
=81
1ccc
=82
1ccc[
=83
2.ccc]
4bb-
=84
1aa-[
=85
8aa-]
16aa-
16gg
16aa-
16gg
16aa-
16gg
4aa-
4f
=86
16e
16cc
16g
16ee
16cc
16gg
16ee
16ccc
16e
16cc
16g
16ee
16cc
16gg
16ee
16ccc
=87
16a
16ff
16cc
16aa
16ff
16ccc
16ff
16fff
2fff
=88
2ddd
4bb-
4ff
=89
2cc
2gg
=90
8ff
8ff
16ee
16ff
16gg
16ff
4ccc
16bb-
16aa
16gg
16ff
=91
8ff
8ff
16ee
16ff
16gg
16ff
4ccc
16bb-
16aa
16gg
16ff
=92
8ff
8ff
16ee
16ff
16gg
16ff
4fff
4r
=93
2a
2dd[
=94
4dd]
4g
4cc
4b-
=95
4a
16ff
16gg
16aa
16ff
16dd
16ee
16ff
16dd
16b-
16cc
16dd
16b-
=96
2c
2gg
=97
2ff[
8ff]
8bb-
8bb-
16aa
16gg
=98
2ff[
8ff]
16dd
16b-
16a
16g
16f
16e
=99
2e
16f
16a
16g
16b-
16a
16cc
16b-
16dd
=100
2e
8f
4.r
==
*-
